X: 26179
T: McKeown's
R: polka
M: 2/4
K: Dmajor
AF BF|AF BF|AB cd|dc G>G|
GE BE|GE BE|GA Bc|BA F>G|
AF BF|AF BF|AB cd|eB B2|
ed cB|BA A2|^GA Bc|d2 d2:|
ba fd|dc c2|B>B Bc|BA A2|
^GA Bc|dc df|ba ^gb|a2 d>d|
dc ed|cB B2|^GA Bc|BA F2|EF GA|Bc ed|(3cBA (3GFE|D4:|
f2 (3efe|dd dB/c/|dd ed|dc c2|
g2 (3fgf|ee e2|ee fd|dc BA|
f2 (3efe|dd dB/c/|dd ed|c2 B2|
B2 Bc/d/|e2 ef|ed cB|A4:|
FA FE|DF BF|AG GF|G3 A|
B2 B>B|BB cB|BA A^G|A2 Bc|
d2 dc/d/|ed AB|cB BA|B3 B|
cc c>B|AA Bc|ed dc|d4:|

